icons/folder-shield-fill.svg

<svg viewBox="0 0 24 24" fill="currentColor" xmlns="http://www.w3.org/2000/svg">
    <path d="M12.4142 5H21C21.5523 5 22 5.44772 22 6V20C22 20.5523 21.5523 21 21 21H3C2.44772 21 2 20.5523 2 20V4C2 3.44772 2.44772 3 3 3H10.4142L12.4142 5ZM8 9V13.904C8 14.7956 8.4456 15.6282 9.18747 16.1228L12 17.9978L14.8125 16.1228C15.5544 15.6282 16 14.7956 16 13.904V9H8ZM10 13.904V11H14V13.904C14 14.1269 13.8886 14.335 13.7031 14.4587L12 15.5941L10.2969 14.4587C10.1114 14.335 10 14.1269 10 13.904Z"/>
</svg>

<svg xmlns="http://www.w3.org/2000/svg" viewBox="0 0 24 24">
    <g>
        <path fill="none" d="M0 0h24v24H0z"/>
        <path fill-rule="nonzero" d="M12.414 5H21a1 1 0 0 1 1 1v14a1 1 0 0 1-1 1H3a1 1 0 0 1-1-1V4a1 1 0 0 1 1-1h7.414l2 2zM8 9v4.904c0 .892.446 1.724 1.187 2.219L12 17.998l2.813-1.875A2.667 2.667 0 0 0 16 13.904V9H8zm2 4.904V11h4v2.904a.667.667 0 0 1-.297.555L12 15.594l-1.703-1.135a.667.667 0 0 1-.297-.555z"/>
    </g>
</svg>
